X:1
T:Angst, 667.667
T:Angst, 667.667
T:Anonymous
T:Public Domain Courtesy of the Cyber Hymnal™
C:Anonymous
Z:Public Domain
Z:Courtesy of the Cyber Hymnal™
%%score ( 1 2 ) ( 3 4 )
L:1/8
Q:1/4=110
M:4/4
K:C
V:1 treble 
V:2 treble 
V:3 bass 
V:4 bass 
V:1
 z2 [CE]2 [CE]2 [CE]2 | [CA]3 [DA] [E^G]4 | z2 [E^G]2 [EA]2 [EB]2 | [Ec]3 [Ac] [^GB]4 | %4
 z2 [^GB]2 [A^c]2 [Ac]2 | [Ad]2 D2 E4 | [A,D]6 [FA]2 | [Ec]2 [FA]2 [EG]2 [DG]2 | [^CA]6 [DA]2 | %9
 [Fd]2 [Ec]2 [EB]2 [EB]2 | [CA]6 [Fc]2 | [Fd]2 [Ge]2 [Af]2 [_Be]2 | e4 [Fd]4 |] %13
V:2
 x8 | x8 | x8 | x8 | x8 | x4 D2 ^C2 | x8 | x8 | x8 | x8 | x8 | x8 | (A2 G2) x4 |] %13
V:3
 z2 [A,,A,]2 [A,,A,]2 [A,,A,]2 | [F,A,]3 [F,A,] [E,B,]4 | z2 [E,B,]2 [A,C]2 [^G,B,]2 | %3
 A,3 [A,C] [E,E]4 | z2 [E,E]2 [A,E]2 [A,E]2 | [F,D]2 [F,,A,]2 [G,,_B,]2 [A,,A,]2 | [D,F,]6 [D,D]2 | %7
 [A,C]2 [F,C]2 [C,C]2 [_B,,D]2 | [A,,E]6 [F,A,]2 | [D,A,]2 [A,,A,]2 [E,A,]2 [E,^G,]2 | %10
 [A,,A,]6 [F,A,]2 | _B,2 [G,B,]2 [D,D]2 [G,D]2 | [A,^C]4 [D,A,]4 |] %13
V:4
 x8 | x8 | x8 | A,3 x5 | x8 | x8 | x8 | x8 | x8 | x8 | x8 | _B,2 x6 | x8 |] %13

